flaticon/hand-gestures/tap-43.svg

<svg xmlns="http://www.w3.org/2000/svg" width="32" height="32" viewBox="0 0 24 24">
    <path d="M5.039062 8.601562C5.121094 8.679688 5.199219 8.71875 5.320312 8.71875 5.441406 8.71875 5.519531 8.679688 5.601562 8.601562 5.761719 8.441406 5.761719 8.199219 5.601562 8.039062L4.761719 7.199219 5.640625 6.320312C5.800781 6.160156 5.800781 5.921875 5.640625 5.761719 5.480469 5.601562 5.238281 5.601562 5.078125 5.761719L4.199219 6.640625 3.320312 5.761719C3.160156 5.601562 2.921875 5.601562 2.761719 5.761719 2.601562 5.921875 2.601562 6.160156 2.761719 6.320312L3.640625 7.199219 2.800781 8.039062C2.640625 8.199219 2.640625 8.441406 2.800781 8.601562 2.878906 8.679688 2.960938 8.71875 3.078125 8.71875 3.160156 8.71875 3.28125 8.679688 3.359375 8.601562L4.199219 7.761719zM13.800781 4.800781C11.359375 4.800781 9.398438 6.761719 9.398438 9.199219L9.398438 13.601562 18.199219 13.601562 18.199219 9.199219C18.199219 6.761719 16.238281 4.800781 13.800781 4.800781zM17.398438 12.800781L10.199219 12.800781 10.199219 9.199219C10.199219 7.199219 11.800781 5.601562 13.800781 5.601562 15.800781 5.601562 17.398438 7.199219 17.398438 9.199219zM17.800781 16.398438L9.800781 16.398438C9.558594 16.398438 9.398438 16.558594 9.398438 16.800781 9.398438 17.039062 9.558594 17.199219 9.800781 17.199219L17.800781 17.199219C18.039062 17.199219 18.199219 17.039062 18.199219 16.800781 18.199219 16.558594 18.039062 16.398438 17.800781 16.398438zM17.800781 18L9.800781 18C9.558594 18 9.398438 18.160156 9.398438 18.398438 9.398438 18.640625 9.558594 18.800781 9.800781 18.800781L17.800781 18.800781C18.039062 18.800781 18.199219 18.640625 18.199219 18.398438 18.199219 18.160156 18.039062 18 17.800781 18zM17.800781 18"/>
    <path d="M 23.398438 9.601562 C 23.398438 4.320312 19.078125 0 13.800781 0 C 10.695312 0 7.785156 1.507812 5.976562 4.0625 C 5.453125 3.769531 4.847656 3.601562 4.199219 3.601562 C 2.199219 3.601562 0.601562 5.199219 0.601562 7.160156 C 0.601562 9.121094 2.199219 10.71875 4.199219 10.71875 C 4.226562 10.71875 4.25 10.71875 4.273438 10.71875 C 4.554688 13.230469 5.828125 15.507812 7.800781 17.074219 L 7.800781 18 C 7.800781 21.320312 10.480469 24 13.800781 24 C 17.121094 24 19.800781 21.320312 19.800781 18 L 19.800781 17.074219 C 22.101562 15.234375 23.398438 12.53125 23.398438 9.601562 Z M 1.398438 7.160156 C 1.398438 5.640625 2.640625 4.398438 4.199219 4.398438 C 4.785156 4.398438 5.320312 4.574219 5.765625 4.871094 L 5.878906 4.960938 C 6.082031 5.105469 6.261719 5.277344 6.410156 5.464844 C 6.695312 5.828125 6.894531 6.261719 6.96875 6.734375 C 6.96875 6.742188 6.96875 6.746094 6.96875 6.75 C 6.976562 6.789062 6.980469 6.828125 6.984375 6.867188 C 6.988281 6.886719 6.988281 6.90625 6.988281 6.929688 C 6.992188 6.953125 6.996094 6.980469 6.996094 7.007812 C 7 7.058594 7 7.109375 7 7.160156 C 7 7.203125 7 7.246094 6.996094 7.292969 C 6.996094 7.328125 6.992188 7.363281 6.988281 7.398438 C 6.988281 7.402344 6.988281 7.410156 6.988281 7.414062 C 6.867188 8.664062 5.875 9.691406 4.601562 9.878906 L 4.410156 9.910156 C 4.339844 9.917969 4.269531 9.921875 4.199219 9.921875 C 2.640625 9.921875 1.398438 8.679688 1.398438 7.160156 Z M 13.800781 23.199219 C 10.921875 23.199219 8.601562 20.878906 8.601562 18 L 8.601562 17.046875 C 8.640625 16.949219 8.636719 16.832031 8.601562 16.726562 L 8.601562 9.199219 C 8.601562 6.320312 10.921875 4 13.800781 4 C 16.679688 4 19 6.320312 19 9.199219 L 19 16.808594 C 18.996094 16.835938 18.996094 16.863281 19 16.886719 L 19 18 C 19 20.878906 16.679688 23.199219 13.800781 23.199219 Z M 19.800781 16.023438 L 19.800781 9.199219 C 19.800781 5.878906 17.121094 3.199219 13.800781 3.199219 C 10.480469 3.199219 7.800781 5.878906 7.800781 9.199219 L 7.800781 15.992188 C 6.28125 14.585938 5.328125 12.675781 5.082031 10.613281 C 6.5 10.261719 7.574219 9.078125 7.769531 7.625 C 7.769531 7.617188 7.769531 7.609375 7.773438 7.597656 C 7.777344 7.558594 7.78125 7.523438 7.785156 7.484375 C 7.785156 7.457031 7.789062 7.433594 7.789062 7.40625 C 7.792969 7.378906 7.792969 7.351562 7.796875 7.324219 C 7.796875 7.269531 7.800781 7.214844 7.800781 7.160156 C 7.800781 6.109375 7.339844 5.164062 6.605469 4.511719 C 8.285156 2.195312 10.964844 0.800781 13.800781 0.800781 C 18.640625 0.800781 22.601562 4.761719 22.601562 9.601562 C 22.601562 12.078125 21.597656 14.363281 19.800781 16.023438 Z M 19.800781 16.023438"/>
</svg>

<svg xmlns="http://www.w3.org/2000/svg" width="32" height="32" viewBox="0 0 24 24">
    <path d="M5.04 8.602c.081.078.16.117.28.117.121 0 .2-.04.282-.117a.39.39 0 0 0 0-.563l-.84-.84.879-.879a.385.385 0 0 0 0-.558.39.39 0 0 0-.563 0L4.2 6.64l-.879-.88a.385.385 0 0 0-.558 0 .385.385 0 0 0 0 .56l.879.878-.84.84a.39.39 0 0 0 0 .563c.078.078.16.117.277.117.082 0 .203-.04.281-.117l.84-.84zm0 0M13.8 4.8a4.389 4.389 0 0 0-4.402 4.4v4.402H18.2V9.199a4.388 4.388 0 0 0-4.398-4.398zm3.598 8H10.2V9.2c0-2 1.602-3.598 3.602-3.598 2 0 3.597 1.597 3.597 3.597zm0 0M17.8 16.398h-8c-.241 0-.402.16-.402.403 0 .238.16.398.403.398h8c.238 0 .398-.16.398-.398 0-.242-.16-.403-.398-.403zm0 0M17.8 18h-8c-.241 0-.402.16-.402.398 0 .243.16.403.403.403h8c.238 0 .398-.16.398-.403 0-.238-.16-.398-.398-.398zm0 0"/>
    <path d="M23.398 9.602C23.398 4.32 19.078 0 13.801 0a9.58 9.58 0 0 0-7.824 4.063 3.626 3.626 0 0 0-1.778-.461c-2 0-3.597 1.597-3.597 3.558 0 1.961 1.597 3.559 3.597 3.559h.074a9.452 9.452 0 0 0 3.528 6.355V18c0 3.32 2.68 6 6 6s6-2.68 6-6v-.926a9.483 9.483 0 0 0 3.597-7.472zm-22-2.442c0-1.52 1.243-2.762 2.801-2.762.586 0 1.121.176 1.567.473l.113.09c.203.144.383.316.531.504.285.363.485.797.559 1.27v.015a1.204 1.204 0 0 1 .02.18.48.48 0 0 1 .007.078C7 7.058 7 7.109 7 7.16c0 .043 0 .086-.004.133 0 .035-.004.07-.008.105v.016c-.12 1.25-1.113 2.277-2.386 2.465l-.192.031c-.07.008-.14.012-.21.012-1.56 0-2.802-1.242-2.802-2.762zM13.801 23.2A5.19 5.19 0 0 1 8.6 18v-.953a.475.475 0 0 0 0-.32V9.199A5.19 5.19 0 0 1 13.802 4 5.19 5.19 0 0 1 19 9.2v7.609a.262.262 0 0 0 0 .078V18a5.19 5.19 0 0 1-5.2 5.2zm6-7.177V9.2c0-3.32-2.68-6-6-6s-6 2.68-6 6v6.793a8.72 8.72 0 0 1-2.719-5.379A3.58 3.58 0 0 0 7.77 7.625c0-.008 0-.016.003-.027l.012-.114c0-.027.004-.05.004-.078.004-.027.004-.054.008-.082 0-.054.004-.11.004-.164 0-1.05-.461-1.996-1.196-2.648C8.285 2.195 10.965.8 13.801.8c4.84 0 8.8 3.96 8.8 8.8a8.66 8.66 0 0 1-2.8 6.422zm0 0"/>
</svg>
